X: 4
T: The Whistler Of Rosslea
R: reel
M: 4/4
L: 1/8
K: Cdor
CDEF G2FD|GDFD EC~C2|B,CDE ~F2EF|G_AFG EFDE|
CDEC DEFD|GABG cBGF|EFF/F/E F_ADF|ECDB, C4:|
|:c2Gc EcGc|~c2dc cBGA|~B2FB DBFB|BAGF ECB,D|
CccB cBGF|EFGA B3c|cBGF EFF/F/E|FB,DB, C4:|


Tune 304	Setting 23076

